X:93
T:You Married My Daughter, Yet You Didn't!
S:Bernie Waugh
R:Reel
M:2/4
L:1/16
K:G
|:B2d2|\
"G"[D4B4g4]fgaf|~g2g2 B2d2|"D"[D4A4f4]efge|~f2f2 B2d2|
"G"[D4B4g4]fgaf|g2g2 B2d2|"D"fgfe dBAB|"G"G4:|
|:BcdB|\
"G"G2BG DGBG|"Am"d2c2 ABcA|"D"F2AF DFAF|"G"e2d2 BcdB|
"G"G2BG DGBG|"Am"d2c2 ABcA|"D"F2fe dcBA|"G"G4:|
